static/img/chainfusion/benefits-3.svg

<svg width="24" height="24" viewBox="0 0 24 24" fill="none" xmlns="http://www.w3.org/2000/svg">
<g id="hand-coin-fill" clip-path="url(#clip0_15880_65725)">
<path id="Vector" d="M9.8349 11.5023L12.0049 11.5028C14.4902 11.5028 16.5049 13.5175 16.5049 16.0028H9.50388L9.50488 17.0028L17.5049 17.002V16.0028C17.5049 14.9204 17.1867 13.8997 16.6188 13.002L19.5049 13.0028C21.4972 13.0028 23.2173 14.1681 24.021 15.8542C21.6562 18.9748 17.8268 21.0028 13.5049 21.0028C10.7436 21.0028 8.40445 20.4122 6.50456 19.378L6.50592 10.0738C7.75147 10.2522 8.89122 10.7585 9.8349 11.5023ZM5.50488 19.0028C5.50488 19.5551 5.05717 20.0028 4.50488 20.0028H2.50488C1.9526 20.0028 1.50488 19.5551 1.50488 19.0028V10.0028C1.50488 9.45052 1.9526 9.00281 2.50488 9.00281H4.50488C5.05717 9.00281 5.50488 9.45052 5.50488 10.0028V19.0028ZM18.5049 5.00281C20.1617 5.00281 21.5049 6.34595 21.5049 8.00281C21.5049 9.65966 20.1617 11.0028 18.5049 11.0028C16.848 11.0028 15.5049 9.65966 15.5049 8.00281C15.5049 6.34595 16.848 5.00281 18.5049 5.00281ZM11.5049 2.00281C13.1617 2.00281 14.5049 3.34595 14.5049 5.00281C14.5049 6.65966 13.1617 8.00281 11.5049 8.00281C9.84803 8.00281 8.50488 6.65966 8.50488 5.00281C8.50488 3.34595 9.84803 2.00281 11.5049 2.00281Z" fill="white" fill-opacity="0.6"/>
</g>
<defs>
<clipPath id="clip0_15880_65725">
<rect width="24" height="24" fill="white"/>
</clipPath>
</defs>
</svg>

<svg xmlns="http://www.w3.org/2000/svg" width="24" height="24" fill="none" viewBox="0 0 24 24"><g clip-path="url(#a)"><path fill="#fff" fill-opacity=".6" d="M9.835 11.502h2.17a4.5 4.5 0 0 1 4.5 4.5H9.504v1h8v-1a5.578 5.578 0 0 0-.885-3h2.886a5 5 0 0 1 4.516 2.852c-2.365 3.12-6.194 5.149-10.516 5.149-2.761 0-5.1-.59-7-1.625v-9.304a6.968 6.968 0 0 1 3.33 1.428Zm-4.33 7.5a1 1 0 0 1-1 1h-2a1 1 0 0 1-1-1v-9a1 1 0 0 1 1-1h2a1 1 0 0 1 1 1v9Zm13-14a3 3 0 1 1 0 6 3 3 0 0 1 0-6Zm-7-3a3 3 0 1 1 0 6 3 3 0 0 1 0-6Z"/></g><defs><clipPath id="a"><path fill="#fff" d="M0 0h24v24H0z"/></clipPath></defs></svg>
